usr/share/icons/biglinux-icons-material/scalable/apps/applications-utilities.svg

<svg width="24" height="24" viewBox="0 0 24 24" fill="none" xmlns="http://www.w3.org/2000/svg">
<path fill-rule="evenodd" clip-rule="evenodd" d="M9.59606 1.11363C9.7159 1.1149 9.83045 1.09964 9.9397 1.06782C11.3755 0.973743 12.8111 0.97756 14.2467 1.07916C15.5484 1.18056 16.8085 1.46299 18.0269 1.92641C20.0525 2.76036 21.4386 4.20681 22.185 6.26577C22.6119 7.50541 22.8639 8.78014 22.9411 10.0899C23.0478 11.7346 23.0096 13.3757 22.8265 15.0132C22.6895 16.1641 22.3916 17.2709 21.933 18.3335C21.0824 20.176 19.704 21.4469 17.7978 22.1462C16.2531 22.6681 14.6647 22.9429 13.0325 22.9705C11.1966 23.0662 9.37915 22.9288 7.57999 22.5586C4.2684 21.8209 2.22559 19.8019 1.45159 16.5018C1.1231 15.0162 0.974206 13.5125 1.00484 11.9907C0.968173 10.3724 1.13999 8.77714 1.52032 7.20475C2.33171 4.11912 4.2905 2.20705 7.3967 1.46856C8.12049 1.2916 8.85361 1.17331 9.59606 1.11363Z" fill="url(#paint0_radial_2_61)"/>
<path d="M12 5.03403C11.3475 5.03381 10.7013 5.16217 10.0985 5.41172C9.49557 5.66127 8.94774 6.0271 8.48628 6.48841C8.02482 6.94972 7.65876 7.49744 7.40901 8.10025C7.15926 8.70306 7.03071 9.34916 7.03071 10.0017C7.03049 10.6543 7.15888 11.3006 7.40853 11.9036C7.65818 12.5066 8.02421 13.0545 8.48569 13.516C8.94718 13.9775 9.49507 14.3435 10.0981 14.5931C10.7011 14.8428 11.3474 14.9712 12 14.971C12.6525 14.971 13.2986 14.8424 13.9014 14.5927C14.5042 14.3429 15.0519 13.9768 15.5132 13.5154C15.9745 13.0539 16.3404 12.5061 16.59 11.9032C16.8395 11.3003 16.9678 10.6542 16.9676 10.0017C16.9676 8.68416 16.4443 7.42063 15.5126 6.48902C14.581 5.55741 13.3175 5.03403 12 5.03403ZM12 7.29294C12.7183 7.29338 13.407 7.57889 13.9149 8.08678C14.4228 8.59466 14.7083 9.2834 14.7087 10.0017C14.7089 10.3576 14.639 10.7101 14.503 11.039C14.367 11.3679 14.1676 11.6668 13.916 11.9187C13.6645 12.1705 13.3658 12.3703 13.0371 12.5067C12.7083 12.6432 12.3559 12.7135 12 12.7137C11.6438 12.7139 11.291 12.6439 10.9619 12.5077C10.6328 12.3715 10.3337 12.1717 10.0818 11.9198C9.82994 11.6679 9.63019 11.3689 9.49397 11.0397C9.35776 10.7106 9.28775 10.3579 9.28797 10.0017C9.28819 9.64573 9.35851 9.29334 9.49492 8.96458C9.63133 8.63583 9.83116 8.33714 10.083 8.08561C10.3348 7.83409 10.6337 7.63465 10.9627 7.49864C11.2916 7.36264 11.6441 7.29273 12 7.29294Z" fill="url(#paint1_linear_2_61)"/>
<path d="M11.0954 3H12.9029V6.16019H11.0971L11.0954 3ZM11.0954 13.8399H12.9029V17H11.0971L11.0954 13.8399ZM19 9.09711V10.9029H15.8415V9.09711H19ZM8.16017 9.09711V10.9029H5V9.09711H8.16017ZM17.5878 14.3112L16.3111 15.5894L14.0754 13.3537L15.3536 12.077L17.5878 14.3112ZM9.92298 6.64804L8.64635 7.92468L6.41058 5.68888L7.68887 4.41224L9.92298 6.64804ZM7.68887 15.5894L6.41058 14.3128L8.64635 12.077L9.92298 13.3537L7.68887 15.5894ZM15.3536 7.92468L14.0754 6.64804L16.3111 4.41224L17.5878 5.68888L15.3536 7.92468Z" fill="url(#paint2_linear_2_61)"/>
<path d="M12.0247 11.1971H12.023C10.4882 11.1971 9.24396 12.1795 9.24396 13.3913V17.8058C9.24396 19.0176 10.4882 20 12.023 20H12.0247C13.5596 20 14.8038 19.0176 14.8038 17.8058V13.3913C14.8038 12.1795 13.5596 11.1971 12.0247 11.1971Z" fill="white"/>
<path d="M9.2482 4C8.05111 4.6215 7.09724 5.62678 6.53938 6.85481C5.98152 8.08285 5.85194 9.46258 6.1714 10.773C6.49087 12.0834 7.24089 13.2487 8.30132 14.0823C9.36176 14.9158 10.6713 15.3693 12.0201 15.3701C13.3689 15.371 14.6789 14.9191 15.7404 14.0869C16.8019 13.2548 17.5534 12.0904 17.8745 10.7804C18.1956 9.47036 18.0678 8.09046 17.5115 6.86173C16.9552 5.63299 16.0026 4.62651 14.8063 4.0035V8.41458L12.0272 11.1936L9.24645 8.41458L9.2482 4Z" fill="white"/>
<defs>
<radialGradient id="paint0_radial_2_61" cx="0" cy="0" r="1" gradientUnits="userSpaceOnUse" gradientTransform="translate(12 1.00004) rotate(90) scale(22 22)">
<stop stop-color="#A1DEFF"/>
<stop offset="1" stop-color="#005B90"/>
</radialGradient>
<linearGradient id="paint1_linear_2_61" x1="11.9992" y1="-4.9029" x2="11.9992" y2="14.971" gradientUnits="userSpaceOnUse">
<stop stop-color="#3F84AB"/>
<stop offset="1" stop-color="#1C658F"/>
</linearGradient>
<linearGradient id="paint2_linear_2_61" x1="12" y1="-11" x2="12" y2="17" gradientUnits="userSpaceOnUse">
<stop stop-color="#3F84AB"/>
<stop offset="1" stop-color="#1C658F"/>
</linearGradient>
</defs>
</svg>

<svg xmlns="http://www.w3.org/2000/svg" width="24" height="24" fill="none"><path fill="url(#a)" fill-rule="evenodd" d="M9.596 1.114c.12 0 .234-.014.344-.046a31.637 31.637 0 0 1 4.307.011c1.301.102 2.561.384 3.78.847 2.025.834 3.412 2.28 4.158 4.34.427 1.24.679 2.514.756 3.824a27.94 27.94 0 0 1-.114 4.923 11.88 11.88 0 0 1-.894 3.32c-.85 1.843-2.229 3.114-4.135 3.813a15.624 15.624 0 0 1-4.765.825 21.413 21.413 0 0 1-5.453-.412c-3.312-.738-5.354-2.757-6.128-6.057a19.045 19.045 0 0 1-.447-4.511 18.49 18.49 0 0 1 .515-4.786c.812-3.086 2.77-4.998 5.877-5.736a13.953 13.953 0 0 1 2.2-.355Z" clip-rule="evenodd"/><path fill="url(#b)" d="M12 5.034a4.967 4.967 0 0 0-3.514 8.482 4.966 4.966 0 0 0 7.027 0A4.97 4.97 0 0 0 12 5.033Zm0 2.259a2.71 2.71 0 1 1-.003 5.42A2.71 2.71 0 0 1 12 7.294Z"/><path fill="url(#c)" d="M11.095 3h1.808v3.16h-1.806L11.095 3Zm0 10.84h1.808V17h-1.806l-.002-3.16ZM19 9.097v1.806h-3.159V9.097H19Zm-10.84 0v1.806H5V9.097h3.16Zm9.428 5.214L16.31 15.59l-2.236-2.235 1.279-1.277 2.234 2.234ZM9.923 6.648 8.646 7.925 6.411 5.689l1.278-1.277 2.234 2.236Zm-2.234 8.941L6.41 14.313l2.235-2.236 1.277 1.277-2.234 2.235Zm7.665-7.664-1.279-1.277 2.236-2.236 1.277 1.277-2.234 2.236Z"/><path fill="#fff" d="M12.025 11.197h-.002c-1.535 0-2.779.983-2.779 2.194v4.415c0 1.212 1.244 2.194 2.779 2.194h.002c1.535 0 2.779-.982 2.779-2.194V13.39c0-1.211-1.244-2.194-2.78-2.194Z"/><path fill="#fff" d="M9.248 4a6.024 6.024 0 1 0 5.558.003v4.412l-2.779 2.779-2.78-2.78L9.247 4Z"/><defs><linearGradient id="b" x1="11.999" x2="11.999" y1="-4.903" y2="14.971" gradientUnits="userSpaceOnUse"><stop stop-color="#3F84AB"/><stop offset="1" stop-color="#1C658F"/></linearGradient><linearGradient id="c" x1="12" x2="12" y1="-11" y2="17" gradientUnits="userSpaceOnUse"><stop stop-color="#3F84AB"/><stop offset="1" stop-color="#1C658F"/></linearGradient><radialGradient id="a" cx="0" cy="0" r="1" gradientTransform="matrix(0 22 -22 0 12 1)" gradientUnits="userSpaceOnUse"><stop stop-color="#A1DEFF"/><stop offset="1" stop-color="#005B90"/></radialGradient></defs></svg>
